.gitbook/assets/CI Analytics (2).svg

<svg xmlns="http://www.w3.org/2000/svg" width="404" height="251" fill="none" viewBox="0 0 404 251"><path fill="#261F00" d="M.5.5h403v250H.5z"/><path stroke="#000" d="M.5.5h403v250H.5z"/><path stroke="#000" stroke-opacity=".2" d="M.5.5h403v250H.5z"/><path fill="#F2D664" fill-rule="evenodd" d="M155 97.692C155 87.922 163.182 80 173.274 80h55.452C238.818 80 247 87.921 247 97.692v30.536c0 1.954-1.636 3.539-3.655 3.539h-20.547l-9.283 16.072c-.682 1.181-2 1.882-3.396 1.806-1.395-.077-2.624-.917-3.164-2.165l-12.594-29.072-6.669 11.547c-.646 1.119-1.866 1.812-3.19 1.812H162.31v22.541c0 5.862 4.909 10.615 10.964 10.615h55.452c6.055 0 10.964-4.753 10.964-10.615v-1.011c0-1.955 1.637-3.539 3.655-3.539 2.019 0 3.655 1.584 3.655 3.539v1.011c0 9.771-8.182 17.692-18.274 17.692h-55.452C163.182 172 155 164.079 155 154.308v-26.08c0-1.954 1.636-3.538 3.655-3.538h23.703l9.283-16.073c.682-1.181 2.001-1.882 3.396-1.805 1.396.076 2.624.916 3.165 2.164l12.593 29.072 6.669-11.547c.646-1.118 1.867-1.811 3.19-1.811h19.036V97.692c0-5.862-4.909-10.615-10.964-10.615h-55.452c-6.055 0-10.964 4.753-10.964 10.615v4.044c0 1.955-1.637 3.539-3.655 3.539-2.019 0-3.655-1.584-3.655-3.539v-4.044Z" clip-rule="evenodd"/></svg>

<svg width="404" height="251" viewBox="0 0 404 251" fill="none" xmlns="http://www.w3.org/2000/svg">
<rect x="0.5" y="0.5" width="403" height="250" fill="#261F00"/>
<rect x="0.5" y="0.5" width="403" height="250" stroke="black"/>
<rect x="0.5" y="0.5" width="403" height="250" stroke="black" stroke-opacity="0.2"/>
<path fill-rule="evenodd" clip-rule="evenodd" d="M155 97.6923C155 87.9211 163.182 80 173.274 80H228.726C238.818 80 247 87.9211 247 97.6923V128.228C247 130.182 245.364 131.767 243.345 131.767H222.798L213.515 147.839C212.833 149.02 211.515 149.721 210.119 149.645C208.724 149.568 207.495 148.728 206.955 147.48L194.361 118.408L187.692 129.955C187.046 131.074 185.826 131.767 184.502 131.767H162.31V154.308C162.31 160.17 167.219 164.923 173.274 164.923H228.726C234.781 164.923 239.69 160.17 239.69 154.308V153.297C239.69 151.342 241.327 149.758 243.345 149.758C245.364 149.758 247 151.342 247 153.297V154.308C247 164.079 238.818 172 228.726 172H173.274C163.182 172 155 164.079 155 154.308V128.228C155 126.274 156.636 124.69 158.655 124.69H182.358L191.641 108.617C192.323 107.436 193.642 106.735 195.037 106.812C196.433 106.888 197.661 107.728 198.202 108.976L210.795 138.048L217.464 126.501C218.11 125.383 219.331 124.69 220.654 124.69H239.69V97.6923C239.69 91.8296 234.781 87.0769 228.726 87.0769H173.274C167.219 87.0769 162.31 91.8296 162.31 97.6923V101.736C162.31 103.691 160.673 105.275 158.655 105.275C156.636 105.275 155 103.691 155 101.736V97.6923Z" fill="#F2D664"/>
</svg>
